packages/icons/svg/Outline/triangle-down.svg

<svg width="24" height="24" viewBox="0 0 24 24" fill="none" xmlns="http://www.w3.org/2000/svg">
<g id="Icon/Outline/triangle-down">
<path id="Mask" fill-rule="evenodd" clip-rule="evenodd" d="M8.09184 10L12.0018 14.822L15.9868 10H8.09184ZM11.9998 17C11.4938 17 11.0098 16.767 10.6738 16.358L6.46084 11.26C5.95684 10.649 5.85684 9.782 6.20184 9.049C6.50684 8.402 7.11384 8 7.78684 8H16.2128C16.8858 8 17.4928 8.402 17.7978 9.049C18.1438 9.782 18.0428 10.649 17.5398 11.259L13.3258 16.358C12.9898 16.767 12.5058 17 11.9998 17Z" fill="#000000"/>
</g>
</svg>

<svg fill="none" height="24" viewBox="0 0 24 24" width="24" xmlns="http://www.w3.org/2000/svg"><path clip-rule="evenodd" d="m8.0918 10.0001 3.91 4.822 3.985-4.822zm3.908 6.9999c-.506 0-.99-.233-1.326-.642l-4.21299-5.098c-.504-.611-.604-1.478-.259-2.211.305-.647.912-1.049 1.585-1.049h8.42599c.673 0 1.28.402 1.585 1.049.346.733.245 1.6-.258 2.21l-4.214 5.099c-.336.409-.82.642-1.326.642z" fill="#6b7280" fill-rule="evenodd"/></svg>
